public/images/tickets/ticket-edge.svg

<svg  viewBox="0 0 10 160" fill="none" xmlns="http://www.w3.org/2000/svg">
<path fill-rule="evenodd" clip-rule="evenodd" d="M1.12554 160C5.75485 159.975 9.5 156.215 9.5 151.58C9.5 151.402 9.41056 151.237 9.26212 151.14L6.02521 149.019C3.71063 147.503 3.59778 144.151 5.80514 142.482L7.31564 141.34C8.39617 140.524 8.36936 138.892 7.26258 138.111L5.60548 136.942C3.43465 135.41 3.33252 132.227 5.40068 130.559L7.62683 128.764C8.60075 127.979 8.62275 126.502 7.67266 125.689L5.04787 123.44C3.10887 121.779 3.2014 118.751 5.23821 117.211L7.31564 115.641C8.39617 114.824 8.36936 113.192 7.26258 112.411L5.47387 111.149C3.34341 109.646 3.19736 106.539 5.17741 104.843L7.61337 102.756C8.58286 101.926 8.5366 100.412 7.5182 99.642L5.19724 97.8875C3.17371 96.3579 3.06668 93.3553 4.97618 91.6855L7.74227 89.2667C8.66597 88.4589 8.6512 87.0175 7.71114 86.2289L5.00047 83.9548C3.07065 82.3359 3.09962 79.3576 5.06057 77.7765L7.72885 75.6251C8.66797 74.8679 8.72801 73.4578 7.85666 72.6236L4.78202 69.6796C2.96434 67.9393 3.18615 64.9727 5.24243 63.522L7.46067 61.957C8.50683 61.2189 8.59973 59.7016 7.65143 58.8414L5.25134 56.6644C3.26828 54.8656 3.5779 51.6643 5.86892 50.2788L7.20284 49.4722C8.34835 48.7795 8.50315 47.1788 7.51163 46.2794L5.25134 44.2291C3.26829 42.4303 3.5779 39.229 5.86891 37.8436L7.13355 37.0788C8.29938 36.3738 8.43447 34.735 7.39981 33.8486L5.31927 32.0662C3.29581 30.3327 3.5009 27.1427 5.72967 25.6826L7.12469 24.7687C8.28199 24.0105 8.33841 22.3345 7.23473 21.5002L5.36139 20.0842C3.28548 18.515 3.23692 15.4127 5.2627 13.7793L9.26586 10.5516C9.41392 10.4322 9.5 10.2522 9.5 10.062C9.5 4.69356 5.29566 0.307047 0 0.0155228V0H10.5V160H1.12554Z" fill="white"/>
</svg>

<svg xmlns="http://www.w3.org/2000/svg" fill="none" viewBox="0 0 10 160"><path fill="#fff" fill-rule="evenodd" d="M1.126 160a8.42 8.42 0 0 0 8.374-8.42.53.53 0 0 0-.238-.44l-3.237-2.121c-2.314-1.516-2.427-4.868-.22-6.537l1.51-1.142a2 2 0 0 0-.052-3.229l-1.658-1.169c-2.17-1.532-2.272-4.715-.204-6.383l2.226-1.795a2 2 0 0 0 .046-3.075l-2.625-2.249a4 4 0 0 1 .19-6.229l2.078-1.57a2 2 0 0 0-.053-3.23l-1.79-1.262c-2.13-1.503-2.276-4.61-.296-6.306l2.436-2.087a2 2 0 0 0-.095-3.114l-2.32-1.754a4 4 0 0 1-.222-6.203l2.766-2.418a2 2 0 0 0-.03-3.038L5 83.955a4 4 0 0 1 .06-6.178l2.669-2.152a2 2 0 0 0 .128-3.001L4.782 69.68a4 4 0 0 1 .46-6.158l2.219-1.565a2 2 0 0 0 .19-3.116l-2.4-2.177c-1.983-1.798-1.673-5 .618-6.385l1.334-.807a2 2 0 0 0 .309-3.193l-2.26-2.05c-1.984-1.799-1.674-5 .617-6.385l1.265-.765a2 2 0 0 0 .266-3.23l-2.08-1.783c-2.024-1.733-1.82-4.923.41-6.383l1.395-.914a2 2 0 0 0 .11-3.269L5.36 20.084a4 4 0 0 1-.098-6.305l4.003-3.227c.148-.12.234-.3.234-.49C9.5 4.694 5.296.307 0 .016V0h10.5v160z" clip-rule="evenodd"/></svg>
